X:1
T:Title
%%score 1 { ( 2 6 ) | ( 3 4 5 ) }
L:1/8
M:6/4
K:Gb
V:1 treble nm="Akkordion"
V:2 treble nm="Grand Piano"
V:6 treble 
V:3 bass 
V:4 bass 
V:5 bass 
V:1
 z12[Q:1/4=100] | z12 | z12 | z12 |[M:5/4] z10 |[M:1/4] Bc |[M:6/4] d2 e2 d2 B4 dc | %7
 B2 G2 A2 G4 B2 | d2 =c2 d2 e2 d2 B2 | B2 A2 G2 A4 B2 | c2 c2 c2 c2 d2 c2 | B2 B2 B2 B4 B2 | %12
 =c2 B2 A2 d2 c2 B2 |[M:5/4] F2 G2 E2 A4 |[M:1/4] DG |[M:6/4] B3 __B _B2 c2 B2 c2 | %16
[M:5/4] =c2 f2 e2 d4 |[M:1/4] d2 |[M:6/4] d2 e2 B2 c2 d2 c2 |[M:5/4] B2 A2 G2 A4 |[M:1/4] DG | %21
[M:6/4] B3 __B _B2 c2 B2 c2 |[M:5/4] =c2 f2 e2 d4 |[M:1/4] dd |[M:6/4] d2 e2 B2 d2 c2 E2 | %25
[M:5/4] F2 B2 A2 G4 |] %26
V:2
 z6 z4 Bc | d2 e2 d2 [Bg]4 [__Bf][Be] | [Bd]2 [=Ge]2 [EGB]2 .[EAc]6 | [=CE__B]6 [=GB]2 .[G_B]4 | %4
[M:5/4] [EFc]2 [FB]2 [DFA]2 G4 |[M:1/4] Bc |[M:6/4] d2 e2 d2 B4 [DGd][EGc] | %7
 [DGB]2 [B,DG]2 [CDFA]2 G4 B2 | d2 =c2 d2 e2 d2 B2 | [=CGB]2 [CFA]2 [CEG]2 [DFA]4 [_FB]2 | %10
 [Ec]2 [Ec]2 [Ec]2 [Fc]2 [Fd]2 [Ac]2 | [GB]2 [GB]2 [AB]2 [GB]4 [GB]2 | =c2 B2 A2 [Ad]2 c2 B2 | %13
[M:5/4] F2 G2 [=CE]2 [DA]4 |[M:1/4] z2 |[M:6/4] [DGd]6 [DFAd]6 |[M:5/4] [G__B=c]4 [GBcg]2 [_Bg]4 | %17
[M:1/4] [Gd]2 |[M:6/4] [=Gd]2 [Ge]2 [EGB]2 [EAc]2 [DAd]2 [DAc]2 | %19
[M:5/4] [DGB]2 [=CFA]2 [CEG]2 [DFA]4 |[M:1/4] z2 |[M:6/4] [DGd]6 [DFAd]6 | %22
[M:5/4] [G__B=c]4 [GBcg]2 g4 |[M:1/4] d2 |[M:6/4] [=Gd]2 [Ge]2 [GB]2 [Bd]2 [Ac]2 [CE]2 | %25
[M:5/4] [CF]2 [FB]2 [DA]2 [B,DG]4 |] %26
V:3
 z6 z4 [G,G][G,A,G] | [G,B,G]2 [G,CG]2 [G,B,G]2 [G,D]4 [G,=C][G,C] | [G,D]2 [E,D]2 E,2 A,4 E,F, | %3
 G,3 F, G,2 E2 D2 D,2 |[M:5/4] D4 z2 z4 |[M:1/4] [G,D][G,A,D] | %6
[M:6/4] [G,B,G]2 [G,CG]2 [G,B,G]2 [G,DG]4 B,,C, | D,2 D,2 D,2 [G,B,D]4 [G,DG]2 | %8
 [G,B,G]2 [G,__B,G]2 [G,_B,G]2 [G,CG]2 [G,B,G]2 [G,DG]2 | E,2 A,2 A,2 D,4 G,2 | %10
 [C,G,]2 [C,G,]2 [A,,A,]2 [D,A,]2 [D,A,]2 [F,D]2 | [G,D]2 [G,D]2 [F,=D]2 [E,E]4 [E,E]2 | %12
 [A,EG]2 [A,DG]2 [A,CG]2[K:bass] [F,D]2 [=G,B,_F]2 [G,DF]2 | %13
[M:5/4] [A,D]2 [A,=CE]2 [A,,G,]2 [D,F,_C]4 |[M:1/4] D,G, |[M:6/4] B,3 __B, _B,2 C2 B,2 C2 | %16
[M:5/4][K:treble] =C2 F2 [E,E]2 [DG]4 |[M:1/4][K:bass] [G,B,]2 | %18
[M:6/4] [E,B,]2 [E,B,]2 E,2 A,2 F,2 D,2 |[M:5/4] G,2 A,2 A,2 D,4 |[M:1/4] D,G, | %21
[M:6/4] B,3 __B, _B,2 C2 B,2 C2 |[M:5/4][K:treble] =C2 F2 [E,E]2 [DGB]4 |[M:1/4] [B,G]2 | %24
[M:6/4][K:bass] [E,B,]2 [E,B,]2 [E,E]2 [A,E]2 [A,E]2 [A,,A,]2 | %25
[M:5/4] [D,A,]2 [D,A,D]2 [D,F,C]2 [G,,G,]4 |] %26
V:4
 x12 | x12 | x12 | x12 |[M:5/4] z4 C2 [G,B,D]4 |[M:1/4] x2 |[M:6/4] x12 | x12 | x12 | x12 | x12 | %11
 x12 | x6[K:bass] x6 |[M:5/4] x10 |[M:1/4] x2 |[M:6/4] x12 |[M:5/4][K:treble] x10 | %17
[M:1/4][K:bass] x2 |[M:6/4] x12 |[M:5/4] x10 |[M:1/4] x2 |[M:6/4] x12 |[M:5/4][K:treble] x10 | %23
[M:1/4] x2 |[M:6/4][K:bass] x12 |[M:5/4] x10 |] %26
V:5
 x12 | x12 | x12 | x12 |[M:5/4] z2 D,4 z4 |[M:1/4] x2 |[M:6/4] x12 | x12 | x12 | x12 | x12 | x12 | %12
 x6[K:bass] x6 |[M:5/4] x10 |[M:1/4] x2 |[M:6/4] x12 |[M:5/4][K:treble] x10 |[M:1/4][K:bass] x2 | %18
[M:6/4] x12 |[M:5/4] x10 |[M:1/4] x2 |[M:6/4] x12 |[M:5/4][K:treble] x10 |[M:1/4] x2 | %24
[M:6/4][K:bass] x12 |[M:5/4] x10 |] %26
V:6
 x12 | x12 | x12 | x12 |[M:5/4] x10 |[M:1/4] x2 |[M:6/4] x12 | x12 | x12 | x12 | x12 | x12 | x12 | %13
[M:5/4] x10 |[M:1/4] x2 |[M:6/4] x12 |[M:5/4] x10 |[M:1/4] x2 |[M:6/4] x12 |[M:5/4] x10 | %20
[M:1/4] x2 |[M:6/4] x12 |[M:5/4] x10 |[M:1/4] z _F, |[M:6/4] x12 |[M:5/4] x10 |] %26

